X: 21
T: Orphan, The
Z: Aberfoyle Whistler
S: https://thesession.org/tunes/217#setting52154
R: jig
M: 6/8
L: 1/8
K: Emin
|:~E3 EDB|GFG AGA|B2 B ABA|GE/F/G EDB|
~E3 EDG-|GFG AGA|B2 B ABA|GED E z2:|
|:e3 dBA|GAB dB/c/d|~e3 dBA|BE/F/G EDB|
~E3 EDB|GFG AGA|B2 B dBA|GED E z2:|

